Simply-Black-Circles/scalable/apps/python.svg

<svg xmlns="http://www.w3.org/2000/svg" width="48" height="48" viewBox="0 0 12.7 12.7"><path fill="#1a1a1a" d="M6.344.073a6.29 6.29 0 0 0-6.29 6.29 6.29 6.29 0 0 0 6.29 6.288 6.29 6.29 0 0 0 6.29-6.289 6.29 6.29 0 0 0-6.29-6.29zm-.018.936a5.407 5.407 0 0 1 5.407 5.407 5.407 5.407 0 0 1-5.407 5.407A5.407 5.407 0 0 1 .92 6.416 5.407 5.407 0 0 1 6.326 1.01z"/><path fill="teal" d="M5.532 1.852c-.68 0-1.227.547-1.227 1.227v.817H6.35v.41H3.487c-.906 0-1.635.73-1.635 1.635v.818c0 .906.73 1.635 1.635 1.635v-.817a1.627 1.627 0 0 1 1.38-1.61c.084-.014.168-.026.256-.026h2.954c.195-.217.317-.501.317-.818V3.08c0-.68-.547-1.227-1.227-1.227zm-.066.577a.418.435 0 0 1 .418.435.418.435 0 0 1-.418.434.418.435 0 0 1-.418-.434.418.435 0 0 1 .418-.435z" opacity=".75"/><path fill="#d4aa00" d="M7.168 10.848c.68 0 1.227-.547 1.227-1.227v-.817H6.35v-.41h2.863c.906 0 1.635-.73 1.635-1.635V5.94c0-.906-.73-1.635-1.635-1.635v.817a1.627 1.627 0 0 1-1.38 1.61 1.627 1.627 0 0 1-.256.026H4.623a1.216 1.216 0 0 0-.317.818V9.62c0 .68.547 1.227 1.227 1.227zm.066-.577a.418.435 0 0 1-.418-.435.418.435 0 0 1 .418-.434.418.435 0 0 1 .418.434.418.435 0 0 1-.418.435z" opacity=".75"/></svg>

<?xml version="1.0" encoding="UTF-8" standalone="no"?>
<svg
   xmlns:dc="http://purl.org/dc/elements/1.1/"
   xmlns:cc="http://creativecommons.org/ns#"
   xmlns:rdf="http://www.w3.org/1999/02/22-rdf-syntax-ns#"
   xmlns:svg="http://www.w3.org/2000/svg"
   xmlns="http://www.w3.org/2000/svg"
   xmlns:sodipodi="http://sodipodi.sourceforge.net/DTD/sodipodi-0.dtd"
   xmlns:inkscape="http://www.inkscape.org/namespaces/inkscape"
   width="48"
   height="48"
   viewBox="0 0 12.7 12.7"
   version="1.1"
   id="svg8"
   sodipodi:docname="python.svg"
   inkscape:version="0.92.4 (5da689c313, 2019-01-14)">
  <metadata
     id="metadata14">
    <rdf:RDF>
      <cc:Work
         rdf:about="">
        <dc:format>image/svg+xml</dc:format>
        <dc:type
           rdf:resource="http://purl.org/dc/dcmitype/StillImage" />
        <dc:title></dc:title>
      </cc:Work>
    </rdf:RDF>
  </metadata>
  <defs
     id="defs12" />
  <sodipodi:namedview
     pagecolor="#ffffff"
     bordercolor="#666666"
     borderopacity="1"
     objecttolerance="10"
     gridtolerance="10"
     guidetolerance="10"
     inkscape:pageopacity="0"
     inkscape:pageshadow="2"
     inkscape:window-width="1087"
     inkscape:window-height="480"
     id="namedview10"
     showgrid="false"
     inkscape:zoom="4.9166667"
     inkscape:cx="2.1355932"
     inkscape:cy="24"
     inkscape:window-x="0"
     inkscape:window-y="25"
     inkscape:window-maximized="0"
     inkscape:current-layer="svg8" />
  <path
     d="m 6.344,0.073 a 6.29,6.29 0 0 0 -6.29,6.29 6.29,6.29 0 0 0 6.29,6.288 6.29,6.29 0 0 0 6.29,-6.289 6.29,6.29 0 0 0 -6.29,-6.29 z M 6.326,1.009 A 5.407,5.407 0 0 1 11.733,6.416 5.407,5.407 0 0 1 6.326,11.823 5.407,5.407 0 0 1 0.92,6.416 5.407,5.407 0 0 1 6.326,1.01 Z"
     id="path2"
     inkscape:connector-curvature="0"
     style="fill:#1a1a1a" />
  <path
     d="m 5.532,1.852 c -0.68,0 -1.227,0.547 -1.227,1.227 V 3.896 H 6.35 v 0.41 H 3.487 c -0.906,0 -1.635,0.73 -1.635,1.635 v 0.818 c 0,0.906 0.73,1.635 1.635,1.635 V 7.577 a 1.627,1.627 0 0 1 1.38,-1.61 C 4.951,5.953 5.035,5.941 5.123,5.941 H 8.077 C 8.272,5.724 8.394,5.44 8.394,5.123 V 3.08 C 8.394,2.4 7.847,1.853 7.167,1.853 Z M 5.466,2.429 A 0.418,0.435 0 0 1 5.884,2.864 0.418,0.435 0 0 1 5.466,3.298 0.418,0.435 0 0 1 5.048,2.864 0.418,0.435 0 0 1 5.466,2.429 Z"
     id="path4"
     inkscape:connector-curvature="0"
     style="opacity:0.75;fill:#008080" />
  <path
     d="m 7.168,10.848 c 0.68,0 1.227,-0.547 1.227,-1.227 V 8.804 H 6.35 v -0.41 h 2.863 c 0.906,0 1.635,-0.73 1.635,-1.635 V 5.94 c 0,-0.906 -0.73,-1.635 -1.635,-1.635 V 5.122 A 1.627,1.627 0 0 1 7.833,6.732 1.627,1.627 0 0 1 7.577,6.758 H 4.623 A 1.216,1.216 0 0 0 4.306,7.576 V 9.62 c 0,0.68 0.547,1.227 1.227,1.227 z M 7.234,10.271 A 0.418,0.435 0 0 1 6.816,9.836 0.418,0.435 0 0 1 7.234,9.402 0.418,0.435 0 0 1 7.652,9.836 0.418,0.435 0 0 1 7.234,10.271 Z"
     id="path6"
     inkscape:connector-curvature="0"
     style="opacity:0.75;fill:#d4aa00" />
</svg>
